X:1
T:Come, Come with Me
M:3/8
L:1/8
R:Air
N:”Allegro”
B:Saunders – New and Complete Instructor for the Violin (Boston, 1847, No. 26, p. 26)
Z:AK/Fiddler’s Companion
K:G
d|Od>^ce/d/|B2d2|.g(Be)|d2d|c>Bc/A/|F2d|
(e2d)|(B2d)|d>^c/e/d/|B2d2|.G(Be)|d2c|
a2g{g}fed|{d}cB (A/B/)|G2::A|A>B/A/G/|A2f|
(fe).e|(ed).d|A>BA/G/|A2f|(fe) (e/f/)|d2B|A>BA/G/|
A2f|(fe).e|(ed).d|A>BA/G/|A2f|(fe).e|d/d/d/d/d/d/:||!d.c.!

